icons/matlab-light.svg

<svg width="256" height="256" viewBox="0 0 256 256" fill="none" xmlns="http://www.w3.org/2000/svg">
<rect width="256" height="256" rx="60" fill="#F4F4ED"/>
<path d="M33 133.187L86.7974 111.452C92.2581 104.236 98.4069 97.5671 105.157 91.5398C109.612 89.1774 117.982 90.4598 133.305 71.4249C148.155 52.8625 152.88 37 159.832 37C170.835 37 178.935 60.7599 191.22 96.7373C199.979 124.218 210.254 151.192 221.999 177.535C209.175 165.587 198.24 152.695 185.752 153.032C174.142 153.302 161.25 167.072 147.142 184.757C135.937 198.932 121.087 208.652 115.282 208.45C115.282 208.45 100.297 166.06 87.7423 159.175C85.1376 158.111 82.318 157.678 79.514 157.913C76.7101 158.147 74.0016 159.042 71.6099 160.525L33 133.12V133.187Z" fill="#4499DD"/>
<path d="M153.151 41.8613C148.629 47.9363 143.161 59.0738 133.306 71.4262C117.984 90.4612 109.681 89.1787 105.159 91.5412C98.3761 97.5356 92.2242 104.208 86.7988 111.454L109.074 127.721C127.974 101.936 138.099 73.9912 145.996 55.9013C147.974 51.0246 150.368 46.3272 153.151 41.8613V41.8613Z" fill="url(#paint0_linear_601_135)"/>
<path d="M159.9 37C145.185 37 135.128 114.49 80.7905 157.757C96.0455 155.26 109.275 193.127 115.35 208.45C142.35 203.86 163.95 152.222 185.753 153.032C198.24 153.505 209.175 165.587 222 177.535C192.705 115.975 179.003 37 159.9 37Z" fill="url(#paint1_linear_601_135)"/>
<defs>
<linearGradient id="paint0_linear_601_135" x1="132.921" y1="118.467" x2="120.839" y2="79.452" gradientUnits="userSpaceOnUse">
<stop stop-color="#551122"/>
<stop offset="0.23" stop-color="#552233"/>
<stop offset="0.36" stop-color="#553344"/>
<stop offset="0.51" stop-color="#664455"/>
<stop offset="0.66" stop-color="#556688"/>
<stop offset="0.84" stop-color="#2299DD"/>
</linearGradient>
<linearGradient id="paint1_linear_601_135" x1="220.043" y1="142.86" x2="98.543" y2="113.025" gradientUnits="userSpaceOnUse">
<stop offset="0.081" stop-color="#CC3333"/>
<stop offset="0.189" stop-color="#DE5239"/>
<stop offset="0.313" stop-color="#F06E3E"/>
<stop offset="0.421" stop-color="#FA8042"/>
<stop offset="0.5" stop-color="#FE8643"/>
<stop offset="0.58" stop-color="#FA7F42"/>
<stop offset="0.696" stop-color="#EF6C3E"/>
<stop offset="0.833" stop-color="#DC4C37"/>
<stop offset="0.916" stop-color="#CF3633"/>
</linearGradient>
</defs>
</svg>

<svg xmlns="http://www.w3.org/2000/svg" width="256" height="256" fill="none"><rect width="256" height="256" fill="#F4F4ED" rx="60"/><path fill="#49D" d="m33 133.187 53.797-21.735a140 140 0 0 1 18.36-19.912c4.455-2.363 12.825-1.08 28.148-20.115C148.155 52.863 152.88 37 159.832 37c11.003 0 19.103 23.76 31.388 59.737a780 780 0 0 0 30.779 80.798c-12.824-11.948-23.759-24.84-36.247-24.503-11.61.27-24.502 14.04-38.61 31.725-11.205 14.175-26.055 23.895-31.86 23.693 0 0-14.985-42.39-27.54-49.275a17.82 17.82 0 0 0-16.132 1.35L33 133.12z"/><path fill="url(#paint0_linear_601_135)" d="M153.151 41.861c-4.522 6.075-9.99 17.213-19.845 29.565-15.322 19.035-23.625 17.753-28.147 20.115a132.8 132.8 0 0 0-18.36 19.913l22.275 16.267c18.9-25.785 29.025-53.73 36.922-71.82a92 92 0 0 1 7.155-14.04"/><path fill="url(#paint1_linear_601_135)" d="M159.9 37c-14.715 0-24.772 77.49-79.11 120.757 15.255-2.497 28.485 35.37 34.56 50.693 27-4.59 48.6-56.228 70.403-55.418 12.487.473 23.422 12.555 36.247 24.503C192.705 115.975 179.003 37 159.9 37"/><defs><linearGradient id="paint0_linear_601_135" x1="132.921" x2="120.839" y1="118.467" y2="79.452" gradientUnits="userSpaceOnUse"><stop stop-color="#512"/><stop offset=".23" stop-color="#523"/><stop offset=".36" stop-color="#534"/><stop offset=".51" stop-color="#645"/><stop offset=".66" stop-color="#568"/><stop offset=".84" stop-color="#29D"/></linearGradient><linearGradient id="paint1_linear_601_135" x1="220.043" x2="98.543" y1="142.86" y2="113.025" gradientUnits="userSpaceOnUse"><stop offset=".081" stop-color="#C33"/><stop offset=".189" stop-color="#DE5239"/><stop offset=".313" stop-color="#F06E3E"/><stop offset=".421" stop-color="#FA8042"/><stop offset=".5" stop-color="#FE8643"/><stop offset=".58" stop-color="#FA7F42"/><stop offset=".696" stop-color="#EF6C3E"/><stop offset=".833" stop-color="#DC4C37"/><stop offset=".916" stop-color="#CF3633"/></linearGradient></defs></svg>
